X: 040584
T: Des O'Connor's
S: Treoir 
Z: B.Black
M: 12/8
L: 1/8
R: slide 
K: Dmix
F/G/ | A3 DFD A2 D A2 d | cBA EFG EFD EFG |
A3 DFD A2 D A2 d | cBA EGE F2 D D2 :|
F/A/ | d2 e f3 e3 dcA | A3 EFG EFD EFG | 
d2 e f3 e2 e dcA | A3 EGE F2 D D2 :|
